launcher/android/assets/skins/day/svg/event.svg

<svg enable-background="new 0 0 220.00 220.00" height="220" viewBox="0 0 220 220" width="220" xmlns="http://www.w3.org/2000/svg"><g stroke-linejoin="round"><path d="m108.936 33.2324c50.12 0 90.75 28.206 90.75 63 0 14.9186-7.469 28.6256-19.953 39.4176l-4.547 5.082-10 7-7 11.5-7 14-7.5 10.5-5-1-1.5-9-1.261-17.333c-8.525 1.842-17.59 2.833-26.989 2.833-50.1197 0-90.7498-28.206-90.7498-62.9996 0-34.794 40.6301-63 90.7498-63z" fill="#e4e4e1" stroke="#000" stroke-width="5"/><path d="m177.686 58.6302c-16.04-14.5168-41.487-23.8978-70.137-23.8978-48.5257 0-87.863 26.9105-87.863 60.1066 0 9.469 3.2004 18.426 8.9015 26.393l20.5425-10.844c-4.4337-5.455-6.9337-11.6308-6.9337-18.173 0-22.1305 28.609-40.071 63.8997-40.071 17.793 0 33.888 4.5606 45.474 11.9191z" fill="#eff487" stroke-width=".2"/><ellipse cx="107.686" cy="93.232" fill="#fff" rx="66" ry="41.9999" stroke-width=".2"/><path d="m66.1859 70.7321h91.5v17h-91.5z" fill="#be7474" stroke="#ce9696" stroke-width="2"/><path d="m96.6859 95.4821h60.3331v17h-60.3331z" fill="#be7474" stroke="#ce9696" stroke-width="2"/></g></svg>

﻿<?xml version="1.0" encoding="utf-8"?>
<!DOCTYPE svg PUBLIC "-//W3C//DTD SVG 1.1//EN" "http://www.w3.org/Graphics/SVG/1.1/DTD/svg11.dtd">
<svg xmlns="http://www.w3.org/2000/svg" xmlns:xlink="http://www.w3.org/1999/xlink" version="1.1" baseProfile="full" width="220" height="220" viewBox="0 0 220.00 220.00" enable-background="new 0 0 220.00 220.00" xml:space="preserve">
	<path fill="#E4E4E1" fill-opacity="1" stroke-width="5" stroke-linejoin="round" stroke="#000000" stroke-opacity="1" d="M 108.936,33.2324C 159.056,33.2324 199.686,61.4384 199.686,96.2324C 199.686,111.151 192.217,124.858 179.733,135.65L 175.186,140.732L 165.186,147.732L 158.186,159.232L 151.186,173.232L 143.686,183.732L 138.686,182.732L 137.186,173.732L 135.925,156.399C 127.4,158.241 118.335,159.232 108.936,159.232C 58.8163,159.232 18.1862,131.026 18.1862,96.2324C 18.1862,61.4384 58.8163,33.2324 108.936,33.2324 Z "/>
	<path fill="#EFF487" fill-opacity="1" stroke-width="0.2" stroke-linejoin="round" d="M 177.686,58.6302C 161.646,44.1134 136.199,34.7324 107.549,34.7324C 59.0233,34.7324 19.686,61.6429 19.686,94.839C 19.686,104.308 22.8864,113.265 28.5875,121.232L 49.13,110.388C 44.6963,104.933 42.1963,98.7572 42.1963,92.215C 42.1963,70.0845 70.8053,52.144 106.096,52.144C 123.889,52.144 139.984,56.7046 151.57,64.0631L 177.686,58.6302 Z "/>
	<ellipse fill="#FFFFFF" fill-opacity="1" stroke-width="0.2" stroke-linejoin="round" cx="107.686" cy="93.232" rx="66" ry="41.9999"/>
	<rect x="66.1859" y="70.7321" fill="#BE7474" fill-opacity="1" stroke-width="2" stroke-linejoin="round" stroke="#CE9696" stroke-opacity="1" width="91.5" height="17"/>
	<rect x="96.6859" y="95.4821" fill="#BE7474" fill-opacity="1" stroke-width="2" stroke-linejoin="round" stroke="#CE9696" stroke-opacity="1" width="60.3331" height="17"/>
</svg>
